X:1
T:Lambillotte, 88.88 repeat
T:Lambillotte, 88.88 repeat
T:Louis Lambillotte (1796-1855)
T:Public Domain Courtesy of the Cyber Hymnal™
C:Louis Lambillotte (1796-1855)
Z:Public Domain
Z:Courtesy of the Cyber Hymnal™
%%score ( 1 2 ) ( 3 4 )
L:1/8
Q:1/4=110
M:3/4
K:F
V:1 treble 
V:2 treble 
V:3 bass 
V:4 bass 
V:1
 C2 C2 C2 | [DF]6 | [EG]2 [EG]2 [EG]2 | [FA]6 | [FA]2 [EG]2 [FA]2 | (c2 B2) [FA]2 | A2 B2 [FA]2 | %7
 [EG]6 | C2 C2 C2 | [DF]6 | [_EG]2 [DG]2 [EG]2 | [FA]6 | [Gc]2 [Gc]2 [Gc]2 | [Fd]4 (cB) | %14
 [FA]4 [EG]2 | [Fc]6 x2 | [Gc]2 [Gc]2 [Gc]2 | [Fd]4 (cB) | [FA]4 [EG]2 | F6 |] %20
V:2
 C2 C2 C2 | x6 | x6 | x6 | x6 | E4 x2 | F4 x2 | x6 | C2 C2 C2 | x6 | x6 | x6 | x6 | x4 F2 | x6 | %15
 x8 | x6 | x4 G2 | x6 | F6 |] %20
V:3
 [F,A,]2 [F,A,]2 [F,A,]2 | [D,A,]6 | [C,G,]2 [C,G,]2 [C,G,]2 | [A,,C]6 | [A,,C]2 [G,,C]2 [A,,C]2 | %5
 [G,,C]4 [A,,C]2 | [B,,B,]4 [B,,B,]2 | [C,G,]6 | [F,A,]2 [F,A,]2 [F,A,]2 | [D,A,]6 | %10
 [_E,B,]2 [E,B,]2 [E,B,]2 | [F,C]6 | [E,C]2 [E,C]2 [E,C]2 | [D,A,]4 [C,A,]2 | [F,C]4 [G,C]2 | %15
 C6 F,2 | [E,C]2 [E,C]2 [E,C]2 | [D,A,]4 [E,A,]2 | [F,C]4 [G,C]2 | [F,A,]6 |] %20
V:4
 x6 | x6 | x6 | x6 | x6 | x6 | x6 | x6 | x6 | x6 | x6 | x6 | x6 | x6 | x6 | A,2 C,2 x4 | x6 | x6 | %18
 x6 | x6 |] %20

